src/assets/icons/SpotifyIcon1.svg

<?xml version="1.0" encoding="UTF-8"?>
<svg xmlns="http://www.w3.org/2000/svg" xmlns:xlink="http://www.w3.org/1999/xlink" width="150px" height="150px" viewBox="0 0 150 150" version="1.1">
<g id="surface1">
<path style=" stroke:none;fill-rule:nonzero;fill:rgb(23.529412%,23.529412%,39.215686%);fill-opacity:1;" d="M 84.082031 7.03125 C 84.339844 7.070312 84.339844 7.070312 84.605469 7.109375 C 95.679688 8.761719 106.257812 13.074219 115.136719 19.921875 C 115.21875 19.984375 115.296875 20.046875 115.378906 20.109375 C 116.410156 20.902344 117.417969 21.71875 118.40625 22.5625 C 118.882812 22.972656 119.367188 23.367188 119.859375 23.757812 C 122.089844 25.578125 124.292969 27.65625 126.148438 29.859375 C 126.367188 30.121094 126.59375 30.375 126.824219 30.632812 C 128.148438 32.121094 129.34375 33.691406 130.515625 35.304688 C 130.597656 35.410156 130.675781 35.515625 130.753906 35.625 C 137.460938 44.800781 141.527344 55.707031 142.96875 66.945312 C 143.003906 67.203125 143.003906 67.203125 143.039062 67.46875 C 143.785156 73.046875 143.734375 78.949219 142.96875 84.523438 C 142.945312 84.703125 142.921875 84.886719 142.898438 85.078125 C 141.261719 97.617188 136.089844 109.871094 127.882812 119.53125 C 127.746094 119.691406 127.613281 119.847656 127.480469 120.007812 C 125.496094 122.363281 123.382812 124.742188 121.019531 126.734375 C 120.757812 126.953125 120.503906 127.179688 120.246094 127.410156 C 118.757812 128.734375 117.1875 129.929688 115.578125 131.101562 C 115.46875 131.183594 115.363281 131.261719 115.253906 131.339844 C 107.984375 136.652344 99.46875 140.460938 90.671875 142.382812 C 90.503906 142.417969 90.335938 142.457031 90.160156 142.496094 C 85.996094 143.386719 81.699219 144.007812 77.433594 144.023438 C 77.265625 144.023438 77.097656 144.027344 76.925781 144.027344 C 76.390625 144.03125 75.855469 144.03125 75.320312 144.03125 C 75.136719 144.03125 74.953125 144.03125 74.765625 144.03125 C 71.933594 144.027344 69.164062 143.941406 66.359375 143.554688 C 66.167969 143.53125 65.976562 143.503906 65.78125 143.476562 C 61.695312 142.933594 57.691406 142.019531 53.757812 140.773438 C 53.609375 140.722656 53.460938 140.675781 53.308594 140.628906 C 45.324219 138.058594 37.742188 133.902344 31.347656 128.46875 C 31.1875 128.332031 31.03125 128.199219 30.871094 128.066406 C 28.515625 126.082031 26.136719 123.96875 24.144531 121.605469 C 23.925781 121.34375 23.699219 121.089844 23.46875 120.832031 C 22.144531 119.34375 20.949219 117.773438 19.773438 116.164062 C 19.695312 116.054688 19.617188 115.949219 19.539062 115.839844 C 12.355469 106.011719 8.023438 94.007812 7.03125 81.882812 C 7.019531 81.746094 7.007812 81.605469 6.992188 81.460938 C 6.859375 79.753906 6.859375 78.050781 6.859375 76.34375 C 6.855469 75.832031 6.855469 75.316406 6.851562 74.804688 C 6.84375 71.863281 7.019531 68.941406 7.433594 66.027344 C 7.457031 65.851562 7.484375 65.675781 7.507812 65.496094 C 9.308594 53.25 14.375 41.394531 22.414062 31.933594 C 22.546875 31.773438 22.679688 31.617188 22.8125 31.457031 C 24.894531 28.988281 27.113281 26.546875 29.589844 24.460938 C 29.757812 24.316406 29.929688 24.167969 30.097656 24.019531 C 31.128906 23.117188 32.171875 22.234375 33.25 21.386719 C 33.402344 21.265625 33.550781 21.148438 33.703125 21.023438 C 43.15625 13.476562 54.257812 8.773438 66.210938 7.03125 C 66.453125 6.996094 66.453125 6.996094 66.695312 6.957031 C 72.308594 6.152344 78.480469 6.1875 84.082031 7.03125 Z M 84.082031 7.03125 "/>
<path style=" stroke:none;fill-rule:nonzero;fill:rgb(99.607843%,99.607843%,99.607843%);fill-opacity:1;" d="M 64.171875 41.449219 C 65.144531 41.433594 66.117188 41.441406 67.089844 41.457031 C 67.351562 41.460938 67.351562 41.460938 67.617188 41.464844 C 80.0625 41.679688 92.53125 43.433594 119.503906 53.851562 C 119.632812 53.925781 119.765625 54 119.898438 54.074219 C 121.128906 54.796875 122.226562 55.707031 122.828125 57.027344 C 122.894531 57.171875 122.964844 57.316406 123.03125 57.464844 C 123.558594 58.761719 123.554688 60.492188 123.101562 61.816406 C 122.328125 63.597656 121.230469 64.726562 119.445312 65.488281 C 118.753906 65.757812 118.144531 65.808594 117.40625 65.816406 C 117.296875 65.820312 117.1875 65.824219 117.074219 65.832031 C 115.53125 65.847656 114.246094 65.136719 112.9375 64.390625 C 106.601562 60.863281 99.765625 58.488281 92.722656 56.835938 C 92.625 56.8125 92.527344 56.789062 92.429688 56.765625 C 87 55.484375 81.460938 54.691406 75.90625 54.226562 C 75.605469 54.199219 75.304688 54.175781 75 54.148438 C 68.097656 53.554688 60.941406 53.664062 54.050781 54.347656 C 53.882812 54.363281 53.882812 54.363281 53.710938 54.378906 C 48.589844 54.878906 43.386719 55.664062 38.460938 57.191406 C 36.605469 57.757812 34.734375 57.90625 32.957031 56.984375 C 31.515625 56.195312 30.429688 55.035156 29.882812 53.46875 C 29.398438 51.34375 29.652344 49.761719 30.761719 47.902344 C 31.71875 46.421875 33.359375 45.726562 35 45.273438 C 35.167969 45.226562 35.339844 45.175781 35.511719 45.128906 C 44.824219 42.542969 54.535156 41.605469 64.171875 41.449219 Z M 64.171875 41.449219 "/>
<path style=" stroke:none;fill-rule:nonzero;fill:rgb(0%,0%,0%);fill-opacity:1;" d="M 28.417969 25.488281 C 28.5625 25.5625 28.5625 25.5625 28.710938 25.632812 C 28.617188 25.726562 28.523438 25.820312 28.425781 25.914062 C 27.757812 26.578125 27.101562 27.242188 26.488281 27.960938 C 26.167969 28.332031 25.832031 28.695312 25.496094 29.058594 C 24.824219 29.796875 24.191406 30.554688 23.585938 31.347656 C 23.507812 31.445312 23.429688 31.546875 23.351562 31.648438 C 15.90625 41.332031 11.03125 52.71875 9.667969 64.890625 C 9.65625 65 9.644531 65.109375 9.628906 65.222656 C 9.355469 67.625 9.324219 70.019531 9.328125 72.4375 C 9.328125 72.632812 9.328125 72.828125 9.328125 73.027344 C 9.335938 75.808594 9.390625 78.542969 9.8125 81.296875 C 9.839844 81.476562 9.867188 81.65625 9.894531 81.839844 C 10.808594 88.089844 12.558594 94.199219 15.195312 99.941406 C 15.359375 100.292969 15.519531 100.648438 15.675781 101.007812 C 17.539062 105.148438 20.082031 109.054688 22.851562 112.648438 C 22.914062 112.730469 22.976562 112.8125 23.042969 112.898438 C 23.824219 113.910156 24.617188 114.898438 25.484375 115.839844 C 25.746094 116.121094 25.996094 116.410156 26.25 116.703125 C 28.355469 119.109375 30.644531 121.296875 33.105469 123.339844 C 33.191406 123.410156 33.277344 123.484375 33.367188 123.558594 C 34.699219 124.65625 36.074219 125.675781 37.496094 126.652344 C 37.683594 126.78125 37.871094 126.910156 38.058594 127.042969 C 47.96875 133.941406 60.566406 138.265625 72.707031 138.3125 C 72.886719 138.3125 73.066406 138.3125 73.253906 138.3125 C 73.832031 138.316406 74.410156 138.316406 74.992188 138.316406 C 75.089844 138.316406 75.1875 138.316406 75.289062 138.316406 C 78.195312 138.320312 81.058594 138.285156 83.9375 137.84375 C 84.113281 137.816406 84.292969 137.789062 84.476562 137.761719 C 97.839844 135.796875 110.144531 129.957031 120.046875 120.753906 C 120.257812 120.5625 120.472656 120.371094 120.6875 120.179688 C 126.300781 115.160156 130.929688 108.585938 134.175781 101.824219 C 134.339844 101.488281 134.503906 101.152344 134.671875 100.820312 C 138.550781 92.953125 140.914062 83.765625 140.949219 74.964844 C 140.949219 74.785156 140.949219 74.601562 140.949219 74.417969 C 140.953125 73.835938 140.953125 73.253906 140.953125 72.675781 C 140.953125 72.574219 140.953125 72.476562 140.953125 72.375 C 140.957031 69.464844 140.921875 66.601562 140.476562 63.71875 C 140.453125 63.546875 140.429688 63.371094 140.402344 63.191406 C 138.492188 50.042969 132.761719 37.71875 123.726562 27.957031 C 123.351562 27.550781 122.980469 27.144531 122.609375 26.734375 C 122.503906 26.621094 122.402344 26.507812 122.296875 26.390625 C 122.042969 26.097656 121.808594 25.800781 121.582031 25.488281 C 122.128906 25.714844 122.476562 26.054688 122.894531 26.472656 C 122.996094 26.574219 122.996094 26.574219 123.101562 26.679688 C 123.246094 26.824219 123.390625 26.96875 123.53125 27.117188 C 123.75 27.335938 123.964844 27.550781 124.183594 27.769531 C 124.957031 28.546875 125.703125 29.339844 126.414062 30.175781 C 126.5625 30.339844 126.707031 30.503906 126.855469 30.667969 C 128.167969 32.144531 129.355469 33.707031 130.515625 35.304688 C 130.597656 35.410156 130.675781 35.515625 130.753906 35.625 C 137.460938 44.800781 141.527344 55.707031 142.96875 66.945312 C 143.003906 67.203125 143.003906 67.203125 143.039062 67.46875 C 143.785156 73.046875 143.734375 78.949219 142.96875 84.523438 C 142.945312 84.703125 142.921875 84.886719 142.898438 85.078125 C 141.261719 97.617188 136.089844 109.871094 127.882812 119.53125 C 127.746094 119.691406 127.613281 119.847656 127.480469 120.007812 C 125.496094 122.363281 123.382812 124.742188 121.019531 126.734375 C 120.757812 126.953125 120.503906 127.179688 120.246094 127.410156 C 118.757812 128.734375 117.1875 129.929688 115.578125 131.101562 C 115.46875 131.183594 115.363281 131.261719 115.253906 131.339844 C 107.984375 136.652344 99.46875 140.460938 90.671875 142.382812 C 90.503906 142.417969 90.335938 142.457031 90.160156 142.496094 C 85.996094 143.386719 81.699219 144.007812 77.433594 144.023438 C 77.265625 144.023438 77.097656 144.027344 76.925781 144.027344 C 76.390625 144.03125 75.855469 144.03125 75.320312 144.03125 C 75.136719 144.03125 74.953125 144.03125 74.765625 144.03125 C 71.933594 144.027344 69.164062 143.941406 66.359375 143.554688 C 66.167969 143.53125 65.976562 143.503906 65.78125 143.476562 C 61.695312 142.933594 57.691406 142.019531 53.757812 140.773438 C 53.609375 140.722656 53.460938 140.675781 53.308594 140.628906 C 45.324219 138.058594 37.742188 133.902344 31.347656 128.46875 C 31.1875 128.332031 31.03125 128.199219 30.871094 128.066406 C 28.515625 126.082031 26.136719 123.96875 24.144531 121.605469 C 23.925781 121.34375 23.699219 121.089844 23.46875 120.832031 C 22.144531 119.34375 20.949219 117.773438 19.773438 116.164062 C 19.695312 116.054688 19.617188 115.949219 19.539062 115.839844 C 12.355469 106.011719 8.023438 94.007812 7.03125 81.882812 C 7.019531 81.746094 7.007812 81.605469 6.992188 81.460938 C 6.859375 79.753906 6.859375 78.050781 6.859375 76.34375 C 6.855469 75.832031 6.855469 75.316406 6.851562 74.804688 C 6.84375 71.863281 7.019531 68.941406 7.433594 66.027344 C 7.457031 65.851562 7.484375 65.675781 7.507812 65.496094 C 9.308594 53.25 14.375 41.394531 22.414062 31.933594 C 22.546875 31.773438 22.679688 31.617188 22.8125 31.457031 C 24.574219 29.367188 26.472656 27.410156 28.417969 25.488281 Z M 28.417969 25.488281 "/>
<path style=" stroke:none;fill-rule:nonzero;fill:rgb(99.607843%,99.607843%,99.607843%);fill-opacity:1;" d="M 104.296875 72.65625 C 104.421875 72.710938 104.542969 72.765625 104.671875 72.824219 C 112.644531 76.410156 112.644531 76.410156 113.964844 79.394531 C 114.371094 80.609375 114.226562 82.101562 113.738281 83.261719 C 112.933594 84.710938 111.722656 85.589844 110.152344 86.078125 C 109.804688 86.144531 109.472656 86.167969 109.121094 86.179688 C 108.996094 86.183594 108.871094 86.191406 108.742188 86.195312 C 107.332031 86.015625 106.117188 85.289062 104.910156 84.585938 C 95.117188 79.011719 84.164062 76.105469 73.003906 74.953125 C 72.890625 74.941406 72.773438 74.929688 72.65625 74.917969 C 69.789062 74.625 66.925781 74.53125 64.042969 74.53125 C 63.890625 74.53125 63.742188 74.535156 63.585938 74.535156 C 56.0625 74.546875 48.695312 75.53125 41.433594 77.507812 C 41.335938 77.535156 41.234375 77.5625 41.132812 77.589844 C 40.859375 77.664062 40.585938 77.738281 40.3125 77.816406 C 39.039062 78.125 37.863281 77.917969 36.707031 77.300781 C 35.492188 76.539062 34.625 75.523438 34.191406 74.140625 C 33.90625 72.65625 34.152344 71.277344 34.910156 69.984375 C 37.132812 66.773438 43.34375 66.304688 46.945312 65.636719 C 50.695312 64.96875 54.5 64.515625 58.300781 64.304688 C 58.519531 64.292969 58.519531 64.292969 58.746094 64.28125 C 71.164062 63.609375 83.707031 65.265625 104.296875 72.65625 Z M 104.296875 72.65625 "/>
<path style=" stroke:none;fill-rule:nonzero;fill:rgb(99.607843%,99.607843%,99.607843%);fill-opacity:1;" d="M 90.820312 89.796875 C 90.980469 89.851562 91.136719 89.90625 91.300781 89.960938 C 103.734375 94.304688 103.734375 94.304688 105.488281 97.5625 C 105.53125 97.65625 105.570312 97.753906 105.617188 97.851562 C 105.714844 98.058594 105.714844 98.058594 105.816406 98.273438 C 106.113281 99.757812 105.847656 100.921875 105.085938 102.210938 C 104.179688 103.066406 103.179688 103.574219 101.933594 103.609375 C 101.742188 103.617188 101.742188 103.617188 101.550781 103.625 C 100.332031 103.46875 99.28125 102.8125 98.246094 102.191406 C 89.085938 96.851562 78.179688 94.050781 67.597656 94.011719 C 67.398438 94.011719 67.199219 94.011719 67 94.011719 C 66.363281 94.007812 65.730469 94.007812 65.09375 94.007812 C 64.984375 94.007812 64.878906 94.007812 64.765625 94.007812 C 61.53125 94.007812 58.320312 94.039062 55.109375 94.441406 C 54.761719 94.484375 54.414062 94.527344 54.066406 94.566406 C 50.707031 94.972656 47.394531 95.535156 44.085938 96.253906 C 40.230469 97.082031 40.230469 97.082031 38.820312 96.242188 C 37.882812 95.609375 37.234375 94.839844 36.914062 93.75 C 36.75 92.332031 36.859375 91.128906 37.738281 89.988281 C 38.777344 88.894531 40.09375 88.582031 41.527344 88.285156 C 41.625 88.261719 41.722656 88.242188 41.824219 88.222656 C 53.207031 85.816406 65.019531 84.832031 90.820312 89.796875 Z M 90.820312 89.796875 "/>
<path style=" stroke:none;fill-rule:nonzero;fill:rgb(15.294118%,39.607843%,31.764706%);fill-opacity:1;" d="M 30.175781 24.023438 C 30.273438 24.070312 30.367188 24.121094 30.46875 24.171875 C 29.40625 25.234375 28.34375 26.296875 27.246094 27.390625 C 27.246094 26.953125 27.246094 26.953125 27.5 26.664062 C 27.667969 26.503906 27.667969 26.503906 27.839844 26.339844 C 28.378906 25.820312 28.875 25.289062 29.355469 24.714844 C 29.605469 24.445312 29.875 24.238281 30.175781 24.023438 Z M 30.175781 24.023438 "/>
</g>
</svg>

<svg xmlns="http://www.w3.org/2000/svg" width="150" height="150"><path d="M84.082 7.031c.258.04.258.04.523.078 11.075 1.653 21.653 5.965 30.532 12.813.082.062.16.125.242.187q1.546 1.189 3.027 2.453c.477.41.961.805 1.453 1.196 2.23 1.82 4.434 3.898 6.29 6.101.218.262.445.516.675.774 1.324 1.488 2.52 3.058 3.692 4.672q.122.156.238.32c6.707 9.176 10.773 20.082 12.215 31.32l.07.524c.746 5.578.695 11.48-.07 17.054q-.036.27-.07.555c-1.637 12.54-6.81 24.793-15.016 34.453q-.204.238-.403.477c-1.984 2.355-4.097 4.734-6.46 6.726a31 31 0 0 0-.774.676c-1.488 1.324-3.058 2.52-4.668 3.692-.11.082-.215.16-.324.238-7.27 5.312-15.785 9.12-24.582 11.043-.168.035-.336.074-.512.113-4.164.89-8.46 1.512-12.726 1.527-.168 0-.336.004-.508.004q-.802.005-1.606.004h-.554c-2.832-.004-5.602-.09-8.407-.476q-.285-.037-.578-.078a70.5 70.5 0 0 1-12.472-2.848c-7.985-2.57-15.567-6.727-21.961-12.16q-.238-.204-.477-.403c-2.355-1.984-4.734-4.097-6.726-6.46a31 31 0 0 0-.676-.774c-1.324-1.488-2.52-3.059-3.696-4.668-.078-.11-.156-.215-.234-.324-7.184-9.828-11.516-21.832-12.508-33.957q-.016-.206-.039-.422c-.133-1.707-.133-3.41-.133-5.117q-.004-.77-.007-1.54c-.008-2.94.168-5.863.582-8.777q.036-.262.074-.53c1.8-12.247 6.867-24.102 14.906-33.563q.2-.238.398-.477c2.083-2.469 4.301-4.91 6.778-6.996.168-.145.34-.293.508-.441a78 78 0 0 1 3.152-2.633c.152-.121.3-.239.453-.364 9.453-7.546 20.555-12.25 32.508-13.992.242-.035.242-.035.484-.074 5.614-.805 11.785-.77 17.387.074m0 0" style="stroke:none;fill-rule:nonzero;fill:#3c3c64;fill-opacity:1"/><path d="M64.172 41.45a91 91 0 0 1 2.918.007l.527.008c12.445.215 24.914 1.969 51.887 12.387q.195.111.394.222c1.23.723 2.329 1.633 2.93 2.953q.102.217.203.438c.528 1.297.524 3.027.07 4.351-.773 1.782-1.87 2.91-3.656 3.672-.691.27-1.3.32-2.039.328q-.164.005-.332.016c-1.543.016-2.828-.695-4.136-1.441-6.336-3.528-13.172-5.903-20.215-7.555l-.293-.07c-5.43-1.282-10.97-2.075-16.524-2.54-.3-.027-.601-.05-.906-.078-6.902-.593-14.059-.484-20.95.2l-.34.03c-5.12.5-10.323 1.286-15.25 2.813-1.855.567-3.726.715-5.503-.207-1.441-.789-2.527-1.949-3.074-3.515-.485-2.125-.23-3.707.879-5.567.957-1.48 2.597-2.175 4.238-2.629.168-.046.34-.097.512-.144 9.312-2.586 19.023-3.524 28.66-3.68m0 0" style="stroke:none;fill-rule:nonzero;fill:#fefefe;fill-opacity:1"/><path d="M28.418 25.488c.145.075.145.075.293.145q-.14.14-.285.281c-.668.664-1.324 1.328-1.938 2.047-.32.371-.656.734-.992 1.098a35 35 0 0 0-1.91 2.289q-.117.147-.234.3c-7.446 9.684-12.32 21.07-13.684 33.243q-.016.162-.04.332c-.273 2.402-.304 4.797-.3 7.215v.59c.008 2.78.063 5.515.485 8.269l.082.543c.914 6.25 2.664 12.36 5.3 18.101q.247.528.48 1.067c1.864 4.14 4.407 8.047 7.177 11.64l.191.25c.781 1.012 1.574 2 2.441 2.942.262.281.512.57.766.863 2.105 2.406 4.395 4.594 6.855 6.637q.128.106.262.219a59 59 0 0 0 4.13 3.093q.28.193.562.391c9.91 6.898 22.507 11.223 34.648 11.27h.547q.866.004 1.738.003h.297c2.906.004 5.77-.03 8.648-.472q.264-.042.54-.082c13.363-1.965 25.668-7.805 35.57-17.008.21-.192.426-.383.64-.574 5.614-5.02 10.243-11.594 13.489-18.356q.245-.505.496-1.004c3.879-7.867 6.242-17.054 6.277-25.855v-.547q.005-.874.004-1.742v-.301c.004-2.91-.031-5.773-.476-8.656q-.035-.258-.075-.528c-1.91-13.148-7.64-25.472-16.675-35.234q-.562-.608-1.118-1.223-.156-.168-.312-.343c-.254-.293-.488-.59-.715-.903.547.227.895.567 1.313.985l.207.207q.217.215.43.437l.652.653c.773.777 1.52 1.57 2.23 2.406l.441.492c1.313 1.477 2.5 3.039 3.66 4.637.083.105.16.21.239.32 6.707 9.176 10.773 20.082 12.215 31.32l.07.524c.746 5.578.695 11.48-.07 17.054q-.036.27-.07.555c-1.637 12.54-6.81 24.793-15.016 34.453q-.204.238-.403.477c-1.984 2.355-4.097 4.734-6.46 6.726a31 31 0 0 0-.774.676c-1.488 1.324-3.058 2.52-4.668 3.692-.11.082-.215.16-.324.238-7.27 5.312-15.785 9.12-24.582 11.043-.168.035-.336.074-.512.113-4.164.89-8.46 1.512-12.726 1.527-.168 0-.336.004-.508.004q-.802.005-1.606.004h-.554c-2.832-.004-5.602-.09-8.407-.476q-.285-.037-.578-.078a70.5 70.5 0 0 1-12.472-2.848c-7.985-2.57-15.567-6.727-21.961-12.16q-.238-.204-.477-.403c-2.355-1.984-4.734-4.097-6.726-6.46a31 31 0 0 0-.676-.774c-1.324-1.488-2.52-3.059-3.696-4.668-.078-.11-.156-.215-.234-.324-7.184-9.828-11.516-21.832-12.508-33.957q-.016-.206-.039-.422c-.133-1.707-.133-3.41-.133-5.117q-.004-.77-.007-1.54c-.008-2.94.168-5.863.582-8.777q.036-.262.074-.53c1.8-12.247 6.867-24.102 14.906-33.563q.2-.238.398-.477c1.762-2.09 3.66-4.047 5.606-5.969m0 0" style="stroke:none;fill-rule:nonzero;fill:#000;fill-opacity:1"/><path d="m104.297 72.656.375.168c7.973 3.586 7.973 3.586 9.293 6.57.406 1.215.262 2.708-.227 3.868-.804 1.449-2.015 2.328-3.586 2.816-.347.067-.68.09-1.03.102-.126.004-.25.011-.38.015-1.41-.18-2.625-.906-3.832-1.61-9.793-5.573-20.746-8.48-31.906-9.632l-.348-.035c-2.867-.293-5.73-.387-8.613-.387-.152 0-.3.004-.457.004a84.4 84.4 0 0 0-22.152 2.973l-.301.082q-.41.11-.82.226c-1.274.309-2.45.102-3.606-.515-1.215-.762-2.082-1.778-2.516-3.16-.285-1.485-.039-2.864.72-4.157 2.222-3.21 8.433-3.68 12.034-4.347a95 95 0 0 1 11.356-1.332l.445-.024c12.418-.672 24.961.985 45.55 8.375M90.82 89.797c.16.055.317.11.48.164 12.434 4.344 12.434 4.344 14.188 7.602.043.093.082.19.13.289l.198.421c.297 1.485.032 2.649-.73 3.938-.906.855-1.906 1.363-3.152 1.398l-.383.016c-1.219-.156-2.27-.812-3.305-1.434-9.16-5.34-20.066-8.14-30.648-8.18H67q-.954-.004-1.906-.003h-.328c-3.235 0-6.446.031-9.657.433q-.52.066-1.043.125c-3.359.407-6.671.97-9.98 1.688-3.856.828-3.856.828-5.266-.012-.937-.633-1.586-1.402-1.906-2.492-.164-1.418-.055-2.621.824-3.762 1.04-1.093 2.356-1.406 3.79-1.703q.145-.034.296-.062c11.383-2.407 23.196-3.391 48.996 1.574m0 0" style="stroke:none;fill-rule:nonzero;fill:#fefefe;fill-opacity:1"/><path d="M30.176 24.023c.097.047.191.098.293.149-1.063 1.062-2.125 2.125-3.223 3.219 0-.438 0-.438.254-.727l.34-.324c.539-.52 1.035-1.05 1.515-1.625.25-.27.52-.477.82-.692m0 0" style="stroke:none;fill-rule:nonzero;fill:#276551;fill-opacity:1"/></svg>
